src/assets/filled/Timer.svg

<svg width="24" height="24" viewBox="0 0 24 24"  xmlns="http://www.w3.org/2000/svg">
<path d="M17.39 15.67L13.35 12H10.64L6.59998 15.67C5.46998 16.69 5.09998 18.26 5.64998 19.68C6.19998 21.09 7.53998 22 9.04998 22H14.94C16.46 22 17.79 21.09 18.34 19.68C18.89 18.26 18.52 16.69 17.39 15.67ZM13.82 18.14H10.18C9.79998 18.14 9.49998 17.83 9.49998 17.46C9.49998 17.09 9.80998 16.78 10.18 16.78H13.82C14.2 16.78 14.5 17.09 14.5 17.46C14.5 17.83 14.19 18.14 13.82 18.14Z" />
<path d="M18.3499 4.32C17.7999 2.91 16.4599 2 14.9499 2H9.04992C7.53992 2 6.19992 2.91 5.64992 4.32C5.10992 5.74 5.47992 7.31 6.60992 8.33L10.6499 12H13.3599L17.3999 8.33C18.5199 7.31 18.8899 5.74 18.3499 4.32ZM13.8199 7.23H10.1799C9.79992 7.23 9.49992 6.92 9.49992 6.55C9.49992 6.18 9.80992 5.87 10.1799 5.87H13.8199C14.1999 5.87 14.4999 6.18 14.4999 6.55C14.4999 6.92 14.1899 7.23 13.8199 7.23Z" />
</svg>

<?xml version="1.0" encoding="UTF-8"?>
<svg width="24" height="24" viewBox="0 0 24 24" xmlns="http://www.w3.org/2000/svg">
 <path d="m17.39 15.67-4.04-3.67h-2.71l-4.04 3.67c-1.13 1.02-1.5 2.59-0.95 4.01 0.55 1.41 1.89 2.32 3.4 2.32h5.89c1.52 0 2.85-0.91 3.4-2.32 0.55-1.42 0.18-2.99-0.95-4.01zm-3.57 2.47h-3.64c-0.38002 0-0.68002-0.31-0.68002-0.68s0.31-0.68 0.68002-0.68h3.64c0.38 0 0.68 0.31 0.68 0.68s-0.31 0.68-0.68 0.68z"/>
 <path d="m18.35 4.32c-0.55-1.41-1.89-2.32-3.4-2.32h-5.9c-1.51 0-2.85 0.91-3.4 2.32-0.54 1.42-0.17 2.99 0.96 4.01l4.04 3.67h2.71l4.04-3.67c1.12-1.02 1.49-2.59 0.95-4.01zm-4.53 2.91h-3.64c-0.37998 0-0.67998-0.31-0.67998-0.68s0.31-0.68 0.67998-0.68h3.64c0.38 0 0.68 0.31 0.68 0.68s-0.31 0.68-0.68 0.68z"/>
</svg>
